16x16/apps/appimagekit-standard-notes.svg

<svg xmlns="http://www.w3.org/2000/svg" width="16" height="16" version="1">
 <rect style="fill:#f4f4f7" width="13" height="16" x="-16" y="-16" rx=".8" ry=".8" transform="matrix(0,-1,-1,0,0,0)"/>
 <path style="fill:#086cd6" d="m0.80078125 0c-0.44320001 0-0.80078125 0.35758124-0.80078125 0.80078125v3.19921875h16v-3.19921875c0-0.44320001-0.357581-0.80078125-0.800781-0.80078125z"/>
 <path style="opacity:0.2" d="M 2,6 V 7 H 14 V 6 Z M 2,9 V 10 H 11 V 9 Z M 2,12 V 13 H 13 V 12 Z"/>
</svg>

<svg xmlns="http://www.w3.org/2000/svg" width="16" height="16" version="1"><rect style="fill:#f4f4f7" width="13" height="16" x="-16" y="-16" rx=".8" ry=".8" transform="matrix(0 -1 -1 0 0 0)"/><path style="fill:#086cd6" d="M.8 0a.8.8 0 0 0-.8.8V4h16V.8a.8.8 0 0 0-.8-.8z"/><path style="opacity:.2" d="M2 6v1h12V6zm0 3v1h9V9zm0 3v1h11v-1z"/></svg>
